docs/img/header/call-phone.svg

<svg width="24" height="24" viewBox="0 0 24 24" fill="none" xmlns="http://www.w3.org/2000/svg">
<path fill-rule="evenodd" clip-rule="evenodd" d="M10.8566 8.33796C11.3747 7.63975 11.5605 6.9039 10.9745 6.25437C9.65955 4.41439 8.77521 3.27655 8.22051 2.7286C7.16595 1.68687 5.43118 1.82778 4.51785 2.72771C4.0273 3.21107 3.86122 3.37706 3.35753 3.88867C0.551877 6.69583 2.26291 12.6301 6.81145 17.1831C11.359 21.7351 17.2926 23.447 20.1042 20.6339C20.569 20.1858 20.9625 19.7921 21.2729 19.464C22.1679 18.518 22.3038 16.8598 21.267 15.7825C20.7354 15.2302 19.6504 14.3885 17.733 13.017C17.1457 12.4919 16.4495 12.6057 15.8111 13.0245C15.504 13.226 15.2806 13.4297 14.8586 13.8521L14.0924 14.6188C13.9914 14.7198 12.621 14.0335 11.2908 12.7019C9.95978 11.3696 9.27396 9.99912 9.37441 9.89868L10.1412 9.13148C10.2751 8.99748 10.3391 8.9326 10.4211 8.84633C10.5921 8.6666 10.7337 8.5035 10.8566 8.33796ZM15.5058 16.033L16.2722 15.2662C16.5044 15.0337 16.6549 14.8908 16.7774 14.7923C18.457 15.9985 19.4298 16.7569 19.8271 17.1698C20.0657 17.4176 20.0286 17.8699 19.8212 18.0891C19.5342 18.3924 19.1614 18.7655 18.7038 19.2069C16.8858 21.0257 12.096 19.6437 8.22519 15.7692C4.35321 11.8934 2.97194 7.10285 4.77626 5.29755C5.27792 4.78804 5.43686 4.62918 5.92042 4.15271C6.10172 3.97407 6.59558 3.93395 6.81614 4.15182C7.2432 4.5737 8.0354 5.58805 9.20077 7.21139C9.14044 7.28629 9.06509 7.37093 8.97339 7.4673C8.90609 7.53804 8.85002 7.59488 8.72744 7.71758L7.96142 8.48402C6.65827 9.78706 7.76808 12.0048 9.87703 14.1158C11.9845 16.2254 14.2031 17.3364 15.5058 16.033Z" fill="white"/>
</svg>

<svg width="24" height="24" fill="none" xmlns="http://www.w3.org/2000/svg"><path fill-rule="evenodd" clip-rule="evenodd" d="M10.857 8.338c.518-.698.704-1.434.118-2.084-1.315-1.84-2.2-2.977-2.754-3.525-1.055-1.042-2.79-.901-3.703-.001-.49.483-.657.65-1.16 1.16C.552 6.697 2.263 12.63 6.81 17.184c4.548 4.552 10.482 6.264 13.293 3.45.465-.447.858-.84 1.169-1.169.895-.946 1.03-2.604-.006-3.681-.532-.553-1.617-1.394-3.534-2.766-.587-.525-1.284-.411-1.922.008-.307.201-.53.405-.952.827l-.767.767c-.1.1-1.471-.585-2.801-1.917-1.33-1.333-2.016-2.704-1.916-2.804l.767-.768c.134-.134.198-.198.28-.285.171-.18.313-.342.436-.508zm4.649 7.695l.766-.767c.232-.232.383-.375.505-.474 1.68 1.207 2.653 1.965 3.05 2.378.239.248.202.7-.006.92-.287.302-.66.675-1.117 1.117-1.818 1.819-6.608.437-10.479-3.438-3.872-3.876-5.253-8.666-3.449-10.471.502-.51.66-.669 1.144-1.145.182-.179.676-.219.896-.001.427.422 1.22 1.436 2.385 3.06-.06.074-.136.159-.228.255a9.633 9.633 0 0 1-.246.25l-.766.767c-1.303 1.303-.193 3.52 1.916 5.632 2.107 2.11 4.326 3.22 5.629 1.917z" fill="#fff"/></svg>
